Obsidian-SemiLight/actions/24s/media-show-active-track-amarok.svg

<svg viewBox="0 0 24 24" xmlns="http://www.w3.org/2000/svg"><path d="m5.5 4c-.8284213 0-1.4999917.6715704-1.5 1.5.0000083.8284296.6715787 1.5 1.5 1.5s1.4999917-.6715704 1.5-1.5c-.0000083-.8284296-.6715787-1.5-1.5-1.5zm2.5 1v1h1v-1zm2 0v1h10v-1zm0 2v1h3v-1zm-4.5 3c-.8284268-.0000012-1.5.671572-1.5 1.5s.6715732 1.500001 1.5 1.5c.8284268.000001 1.5-.671572 1.5-1.5s-.6715732-1.5000012-1.5-1.5zm2.5 1v1h1v-1zm2 0v1h5v-1zm0 2v1h4v-1zm-4.5 3c-.8284268-.000001-1.5.671572-1.5 1.5s.6715732 1.500001 1.5 1.5c.8284268.000001 1.5-.671572 1.5-1.5s-.6715732-1.500001-1.5-1.5zm2.5 1v1h1v-1zm2 0v1h10v-1zm0 2v1h7v-1z" fill="#4d4d4d"/><path d="m20 9-4 3 4 3z" fill="#3daee9"/></svg>

<svg xmlns="http://www.w3.org/2000/svg" viewBox="0 0 24 24">
  <defs id="defs3051">
    <style type="text/css" id="current-color-scheme">
      .ColorScheme-Text {
        color:#4d4d4d;
      }
      .ColorScheme-Highlight {
        color:#3daee9;
      }
      </style>
  </defs>
 <path 
     style="fill:currentColor;fill-opacity:1;stroke:none" 
     d="M 5.5 4 C 4.6715787 4 4.0000083 4.6715704 4 5.5 C 4.0000083 6.3284296 4.6715787 7 5.5 7 C 6.3284213 7 6.9999917 6.3284296 7 5.5 C 6.9999917 4.6715704 6.3284213 4 5.5 4 z M 8 5 L 8 6 L 9 6 L 9 5 L 8 5 z M 10 5 L 10 6 L 20 6 L 20 5 L 10 5 z M 10 7 L 10 8 L 13 8 L 13 7 L 10 7 z M 5.5 10 C 4.6715732 9.9999988 4 10.671572 4 11.5 C 4 12.328428 4.6715732 13.000001 5.5 13 C 6.3284268 13.000001 7 12.328428 7 11.5 C 7 10.671572 6.3284268 9.9999988 5.5 10 z M 8 11 L 8 12 L 9 12 L 9 11 L 8 11 z M 10 11 L 10 12 L 15 12 L 15 11 L 10 11 z M 10 13 L 10 14 L 14 14 L 14 13 L 10 13 z M 5.5 16 C 4.6715732 15.999999 4 16.671572 4 17.5 C 4 18.328428 4.6715732 19.000001 5.5 19 C 6.3284268 19.000001 7 18.328428 7 17.5 C 7 16.671572 6.3284268 15.999999 5.5 16 z M 8 17 L 8 18 L 9 18 L 9 17 L 8 17 z M 10 17 L 10 18 L 20 18 L 20 17 L 10 17 z M 10 19 L 10 20 L 17 20 L 17 19 L 10 19 z "
     class="ColorScheme-Text"
     />
 <path 
     style="fill:currentColor;fill-opacity:1;stroke:none" 
     d="M 20 9 L 16 12 L 20 15 L 20 9 z "
     class="ColorScheme-Highlight"
     />
</svg>
